icons/1_Primary/Wilma.svg

<svg width="1024" height="1024" viewBox="0 0 1024 1024" fill="none" xmlns="http://www.w3.org/2000/svg">
<g clip-path="url(#clip0_2_3936)">
<path d="M512 1024C794.77 1024 1024 794.77 1024 512C1024 229.23 794.77 0 512 0C229.23 0 0 229.23 0 512C0 794.77 229.23 1024 512 1024Z" fill="#54688C"/>
<path d="M190 440.19C211 432.67 215 444.06 221.51 459.73C231.19 482.57 245.58 544.61 249.85 566.18C249.85 567.06 260.5 614.1 261.85 618.98C263.85 625.98 265.99 621.14 267.75 613.92C269.51 606.7 278.49 556.71 283.68 533.79C289.205 508.738 296.078 484.002 304.27 459.69C306.364 452.686 309.59 446.072 313.82 440.11C315.91 437.226 318.62 434.848 321.75 433.15C324.881 431.452 328.353 430.479 331.91 430.3C340.71 429.86 347.53 433.95 352.72 443.02C357.91 452.09 361.52 466.08 364.56 485.35C366.45 497.67 374.72 545.46 382.16 566.58C384.16 572.34 387.04 575.69 390.04 567.77C393.04 559.85 410.94 484.16 421.63 444.56C431.44 408.17 443.24 375.83 456.04 358.44C463.87 347.79 472.76 342.91 481.17 342.16C484.343 341.683 487.583 341.948 490.637 342.933C493.691 343.919 496.474 345.599 498.77 347.84C501.85 352.24 499.56 358.18 492.04 370.33C482.672 386.366 475.032 403.352 469.25 421C463.4 436.8 458.69 452.11 453.32 468.92C441.26 506.41 425.86 579.99 410.64 616.64C405.45 629.09 398.64 634.95 390.35 638.11C382.06 641.27 372.48 639.69 364.96 625.92C352.42 602.99 343.84 568.71 337.72 543.54C335.51 534.306 333.15 525.108 330.64 515.95C329.06 510.14 326.24 510.32 324.3 519.38C323.64 522.2 309.95 585.96 303.3 617.51C302.3 622.26 292.39 665.91 281.65 678.81C279.407 681.331 276.622 683.31 273.505 684.598C270.387 685.887 267.018 686.452 263.65 686.25C257.712 686.188 252.019 683.876 247.72 679.78C233.64 666.58 223.34 632.12 215.77 601.72C205.12 559.12 193.2 520.14 177.97 476.72C172.53 461 169.62 447.36 190 440.19ZM835.63 492C831.23 498.12 828.81 502.21 825.86 506.65C823.92 509.55 820.45 513.38 820.86 500.36C821.74 470 829.66 453.63 830.72 439.28C831.25 431.14 825.66 425.64 818.57 422.38C811.48 419.12 783.37 409.18 760.88 432.38C750.404 444 742.634 457.798 738.13 472.78C727.264 492.485 718.136 513.1 710.85 534.39L718 462.45C718 458.05 720.38 447.31 712.54 444.23C693.75 436.97 688.07 452.06 688.07 452.06C686.75 453.95 667.26 497.91 654.89 519.78C655.64 514.54 661.36 470.58 660.61 461.21C660.526 459.678 660.14 458.178 659.475 456.795C658.809 455.413 657.878 454.175 656.733 453.153C655.589 452.131 654.254 451.345 652.805 450.84C651.356 450.335 649.822 450.121 648.29 450.21C640.59 449.59 636.89 450.74 634.29 454.61C629.89 460.37 611.14 502.18 611.14 502.18C611.14 502.18 608.81 478.33 608.37 471.95C608.11 467.55 606.79 461.57 599.17 460.82C590.85 459.98 585.97 463.64 584.34 469C578.09 485.68 573.78 500.59 566.34 520.79C565.46 523.12 554.19 546.71 551.07 553.44C546.67 562.24 547.07 554.1 547.07 538.21C547.07 528.44 548.52 502.48 548.52 502.48C548.52 502.48 555.91 492.67 565.33 477.4C597.19 426.05 606.56 390.84 608.33 363.69C609.552 354.246 609.03 344.657 606.79 335.4C603.79 323.4 595.57 319.69 584.57 319.69C580.839 319.746 577.158 320.554 573.747 322.066C570.337 323.578 567.266 325.763 564.72 328.49C555.201 340.434 547.612 353.797 542.23 368.09C533.91 389.34 523.84 431.54 519.13 458.87C515.65 479.33 513.45 502.39 513.45 502.39C513.379 504.25 513.172 506.101 512.83 507.93C492.9 548.93 484.89 564.3 477.63 578.34C473.23 587.4 472.35 577.06 472.83 568.18C475.91 514.01 487.83 488.97 490.43 477.75C492.01 471.02 492.72 466.62 483.7 462.13C477.76 459.18 469.05 457.73 465 467.67C460.699 478.674 457.184 489.969 454.48 501.47C451.36 516.61 448.54 520.92 445.37 551.28C443.475 566.161 445.649 581.277 451.66 595.02C458.04 606.64 475.42 608.22 485.06 595.02C490.68 587.34 513 544.7 513 544.7C513 544.7 514.06 554.51 514.72 559.27C515.725 568.078 518.735 576.538 523.52 584C532.32 597.55 550.19 588.8 555.16 582.81C560.764 575.982 565.453 568.452 569.11 560.41C575.157 547.774 580.346 534.745 584.64 521.41C584.64 521.41 584.64 554.94 585.83 562.82C588.21 576.11 593.83 579.41 596.43 579.41C605.23 580.07 610.78 577.87 616.54 561.81C620.54 550.5 633.75 512.09 633.75 512.09C633.75 512.09 633.22 550.51 633.75 559.35C634.32 567.49 636.04 574.09 644.75 574.75C655.35 575.54 659.49 567.84 662.35 560.93C665.21 554.02 690.47 497.83 690.47 497.83C690.47 497.83 688.01 549.53 688.14 554.11C688.36 563.39 694.61 569.03 699.45 569.34C702.567 569.784 705.746 569.278 708.571 567.888C711.397 566.498 713.738 564.29 715.29 561.55C720.22 553.94 723.12 543.95 727.96 532.9C726.82 566.83 748.42 565.33 755.51 564.8C777.2 563.3 788.95 529.6 791.64 525.2C794.33 520.8 794.06 526.2 793.84 528.2C791.9 545.36 798.24 548.49 801.94 549.85C811.36 552.75 820.73 545.76 825.35 537.53C825.35 537.53 847.35 501.97 849.99 492.95C850.59 490.75 841.3 484.06 835.63 492ZM561.26 406.83C564.707 387.398 570.621 368.485 578.86 350.55C589.2 326.79 592.86 332.24 592.06 345.18C590.52 367.18 588.45 384.78 573.31 420.78C567.673 434.469 561.115 447.759 553.68 460.56C555.36 441.9 557.83 425.67 561.26 406.83ZM807.95 443C806.95 445.33 801.66 452 796.51 462.49C794.88 465.35 779.26 500.91 775.34 510.28C771.867 519.891 767.085 528.976 761.13 537.28C758.23 539.61 755.37 539 755.19 533.58C754.838 515.007 757.822 496.52 764 479C781.63 430 810.76 437 807.95 443ZM490.24 421C487.412 421 484.647 421.839 482.295 423.41C479.944 424.982 478.111 427.215 477.028 429.828C475.946 432.441 475.663 435.316 476.215 438.09C476.766 440.864 478.128 443.412 480.128 445.412C482.128 447.412 484.676 448.774 487.45 449.326C490.224 449.877 493.099 449.594 495.712 448.512C498.325 447.43 500.559 445.597 502.13 443.245C503.701 440.893 504.54 438.129 504.54 435.3C504.472 431.557 502.934 427.99 500.258 425.371C497.583 422.751 493.984 421.289 490.24 421.3V421Z" fill="white"/>
</g>
<defs>
<clipPath id="clip0_2_3936">
<rect width="1024" height="1024" fill="white"/>
</clipPath>
</defs>
</svg>

<svg xmlns="http://www.w3.org/2000/svg" width="1024" height="1024" fill="none">
   <g clip-path="url(#a)">
      <path fill="#54688C" d="M512 1024c282.77 0 512-229.23 512-512S794.77 0 512 0 0 229.23 0 512s229.23 512 512 512Z"/>
      <path fill="#fff" d="M190 440.19c21-7.52 25 3.87 31.51 19.54 9.68 22.84 24.07 84.88 28.34 106.45 0 .88 10.65 47.92 12 52.8 2 7 4.14 2.16 5.9-5.06 1.76-7.22 10.74-57.21 15.93-80.13a712.86 712.86 0 0 1 20.59-74.1 67.008 67.008 0 0 1 9.55-19.58 23.821 23.821 0 0 1 18.09-9.81c8.8-.44 15.62 3.65 20.81 12.72 5.19 9.07 8.8 23.06 11.84 42.33 1.89 12.32 10.16 60.11 17.6 81.23 2 5.76 4.88 9.11 7.88 1.19s20.9-83.61 31.59-123.21c9.81-36.39 21.61-68.73 34.41-86.12 7.83-10.65 16.72-15.53 25.13-16.28a20.778 20.778 0 0 1 17.6 5.68c3.08 4.4.79 10.34-6.73 22.49A262.445 262.445 0 0 0 469.25 421c-5.85 15.8-10.56 31.11-15.93 47.92-12.06 37.49-27.46 111.07-42.68 147.72-5.19 12.45-12 18.31-20.29 21.47s-17.87 1.58-25.39-12.19c-12.54-22.93-21.12-57.21-27.24-82.38a873.94 873.94 0 0 0-7.08-27.59c-1.58-5.81-4.4-5.63-6.34 3.43-.66 2.82-14.35 66.58-21 98.13-1 4.75-10.91 48.4-21.65 61.3a22.304 22.304 0 0 1-18 7.44 23.448 23.448 0 0 1-15.93-6.47c-14.08-13.2-24.38-47.66-31.95-78.06-10.65-42.6-22.57-81.58-37.8-125-5.44-15.72-8.35-29.36 12.03-36.53ZM835.63 492c-4.4 6.12-6.82 10.21-9.77 14.65-1.94 2.9-5.41 6.73-5-6.29.88-30.36 8.8-46.73 9.86-61.08.53-8.14-5.06-13.64-12.15-16.9-7.09-3.26-35.2-13.2-57.69 10a105.844 105.844 0 0 0-22.75 40.4 387.263 387.263 0 0 0-27.28 61.61l7.15-71.94c0-4.4 2.38-15.14-5.46-18.22-18.79-7.26-24.47 7.83-24.47 7.83-1.32 1.89-20.81 45.85-33.18 67.72.75-5.24 6.47-49.2 5.72-58.57a11.661 11.661 0 0 0-12.32-11c-7.7-.62-11.4.53-14 4.4-4.4 5.76-23.15 47.57-23.15 47.57s-2.33-23.85-2.77-30.23c-.26-4.4-1.58-10.38-9.2-11.13-8.32-.84-13.2 2.82-14.83 8.18-6.25 16.68-10.56 31.59-18 51.79-.88 2.33-12.15 25.92-15.27 32.65-4.4 8.8-4 .66-4-15.23 0-9.77 1.45-35.73 1.45-35.73s7.39-9.81 16.81-25.08c31.86-51.35 41.23-86.56 43-113.71a77.824 77.824 0 0 0-1.54-28.29c-3-12-11.22-15.71-22.22-15.71a27.734 27.734 0 0 0-19.85 8.8 146.208 146.208 0 0 0-22.49 39.6c-8.32 21.25-18.39 63.45-23.1 90.78-3.48 20.46-5.68 43.52-5.68 43.52a38.027 38.027 0 0 1-.62 5.54c-19.93 41-27.94 56.37-35.2 70.41-4.4 9.06-5.28-1.28-4.8-10.16 3.08-54.17 15-79.21 17.6-90.43 1.58-6.73 2.29-11.13-6.73-15.62-5.94-2.95-14.65-4.4-18.7 5.54a250.054 250.054 0 0 0-10.52 33.8c-3.12 15.14-5.94 19.45-9.11 49.81a82.99 82.99 0 0 0 6.29 43.74c6.38 11.62 23.76 13.2 33.4 0 5.62-7.68 27.94-50.32 27.94-50.32s1.06 9.81 1.72 14.57a57.991 57.991 0 0 0 8.8 24.73c8.8 13.55 26.67 4.8 31.64-1.19a101.595 101.595 0 0 0 13.95-22.4 311.602 311.602 0 0 0 15.53-39s0 33.53 1.19 41.41c2.38 13.29 8 16.59 10.6 16.59 8.8.66 14.35-1.54 20.11-17.6 4-11.31 17.21-49.72 17.21-49.72s-.53 38.42 0 47.26c.57 8.14 2.29 14.74 11 15.4 10.6.79 14.74-6.91 17.6-13.82 2.86-6.91 28.12-63.1 28.12-63.1s-2.46 51.7-2.33 56.28c.22 9.28 6.47 14.92 11.31 15.23a15.669 15.669 0 0 0 15.84-7.79c4.93-7.61 7.83-17.6 12.67-28.65-1.14 33.93 20.46 32.43 27.55 31.9 21.69-1.5 33.44-35.2 36.13-39.6 2.69-4.4 2.42 1 2.2 3-1.94 17.16 4.4 20.29 8.1 21.65 9.42 2.9 18.79-4.09 23.41-12.32 0 0 22-35.56 24.64-44.58.6-2.2-8.69-8.89-14.36-.95Zm-274.37-85.17a231.813 231.813 0 0 1 17.6-56.28c10.34-23.76 14-18.31 13.2-5.37-1.54 22-3.61 39.6-18.75 75.6a327.469 327.469 0 0 1-19.63 39.78c1.68-18.66 4.15-34.89 7.58-53.73ZM807.95 443c-1 2.33-6.29 9-11.44 19.49-1.63 2.86-17.25 38.42-21.17 47.79a111.149 111.149 0 0 1-14.21 27c-2.9 2.33-5.76 1.72-5.94-3.7A155.278 155.278 0 0 1 764 479c17.63-49 46.76-42 43.95-36Zm-317.71-22a14.305 14.305 0 0 0-13.212 8.828 14.3 14.3 0 1 0 27.512 5.472 14.258 14.258 0 0 0-14.3-14v-.3Z"/>
   </g>
   <defs>
      <clipPath id="a">
         <path fill="#fff" d="M0 0h1024v1024H0z"/>
      </clipPath>
   </defs>
</svg>
